resources/haticons/SVG/delete_forever.svg

<!-- Generated by IcoMoon.io -->
<svg version="1.1" xmlns="http://www.w3.org/2000/svg" width="24" height="24" viewBox="0 0 24 24">
<title>delete_forever</title>
<path d="M15.516 3.984h3.469v2.016h-13.969v-2.016h3.469l1.031-0.984h4.969zM8.438 11.859l2.156 2.156-2.109 2.109 1.406 1.406 2.109-2.109 2.109 2.109 1.406-1.406-2.109-2.109 2.109-2.156-1.406-1.406-2.109 2.156-2.109-2.156zM6 18.984v-12h12v12q0 0.797-0.609 1.406t-1.406 0.609h-7.969q-0.797 0-1.406-0.609t-0.609-1.406z"></path>
</svg>

<svg xmlns="http://www.w3.org/2000/svg" width="24" height="24"><path d="M15.516 3.984h3.469V6H5.016V3.984h3.469L9.516 3h4.969zm-7.078 7.875l2.156 2.156-2.109 2.109 1.406 1.406L12 15.421l2.109 2.109 1.406-1.406-2.109-2.109 2.109-2.156-1.406-1.406L12 12.609l-2.109-2.156zM6 18.984v-12h12v12q0 .797-.609 1.406t-1.406.609H8.016q-.797 0-1.406-.609t-.609-1.406z"/></svg>
